X:1
T:Title
%%score ( 1 2 ) { 3 | 4 }
L:1/8
Q:1/4=90
M:6/8
K:G
V:1 treble nm="Grand Piano, Soprano"
V:2 treble 
V:3 treble nm="Choir Pad, The Other Side (Doggett)"
V:4 bass 
V:1
 [GB][GB][FA] [DG]GF | [DG] d2 A [Fc]2 | [Fc]cA [GB] [Fc]2 | [Dd] [DB]2- [DB]3/2 z/ z | %4
w: By~A.~L.~Stough * * * * *||||
 [DB][DB][^DA] [EG][EG][=DF] | [DG] E2- [Ec-]/c/ [Ec]2 | z [DB]>[DG] [GB] [GB]2 | %7
w: |||
 [FA] [DG]2- [DG]2- [DG]/ z/ | z [GB][Gd] [GB] [GB]2 | [Gc] [GB]2- [GB]2- [GB]/ z/ | %10
w: |||
 z [DG][DB] [DG] [FA]2 | [GB] [FA]2- [FA]3/2 z/ z | [Ad][Gd][Gc] [GB]BA | [=FG] G2 c [Ec]2 | %14
w: ||||
 z [DB]>[DG] [GB] [GB]2 | [FA] [DG]2- [DG]3- | [DG]3 z3 |] %17
w: |||
V:2
 z3 z D2 | z F2- F/ z/ z z | z F2 z3 | x6 | x6 | z G2 z3 | x6 | x6 | x6 | x6 | x6 | x6 | z3 z =F2 | %13
 z E2- E/ z/ z z | x6 | x6 | x6 |] %17
V:3
 DDC B,B,C | B, A,2 D A,2 | A,A,C B, A,2 | A, G,2- G,3/2 z/ z | G,G,B, B,CA, | G, C2 G, G,2 | %6
 z G,>B,[K:treble] D D2 | C B,2- B,2- B,/ z/ | z DB, D D2 | E D2- D2- D/ z/ | %10
 z[K:bass] B,G, B, A,2 | D[K:treble] D2- D3/2 z/ z | CB,E D D2 | D C2[K:bass] G, G,2 | %14
 z G,>B, D D2 | C B,2- B,3- | B,3 z3 |] %17
V:4
 G, G,2 G,G,A, | G, D,2- D,/ z/ D,2 | D, D,2 D, D,2 | .F,3 z3 | z2 F, E, C,2 | %5
 B,, C,2- C,/ z/ C,2 | z D,>D, D, D,2 | D, G,,2- G,,2- G,,/ z/ | z G,G, G, G,2 | G,G,D, B,, G,,2 | %10
 z G,,G,, G,, D,2 | D,D,F, A, .D,2 | F, G,2 G, G,2 | B,, C,2- C,/ z/ C,2 | z D,>D, D, D,2 | %15
 [D,,D,] [G,,G,]2- [G,,G,]3- | [G,,G,]3 z3 |] %17

